X: 42241
T: We Won't Go Home Till Morning
R: polka
M: 2/4
K: Dmajor
|:D>E FG|Ad A2|BG G2|cA A2|
D>E FG|Ad A>G|FA GE|D2 D2:|
|:dA AB/c/|dA A2|BG G2|cA A2|
dA AB/c/|dA A>G|FA GE|D2 D2:|

